img/growth.svg

<svg width="48" height="48" viewBox="0 0 48 48" fill="none" xmlns="http://www.w3.org/2000/svg">
<g clip-path="url(#clip0_55284_1279)">
<path d="M42.8265 15.0619H36.7016V10.3436H46.5918C46.5926 10.3436 46.5933 10.3436 46.5937 10.3436C47.3704 10.3436 47.9999 9.71373 47.9999 8.93736C47.9999 8.52684 47.8245 8.1577 47.544 7.90062L44.815 5.17162L47.5865 2.40051C47.9886 1.99841 48.1087 1.39343 47.8911 0.868284C47.6736 0.342773 47.1609 0 46.5922 0H35.2953C34.519 0 33.8895 0.629515 33.8895 1.40625V15.0619H32.2829C29.4312 15.0619 27.1113 17.3822 27.1113 20.2338V23.1646C26.4034 22.8002 25.6018 22.593 24.7521 22.593H23.2459C20.3942 22.593 18.0743 24.9129 18.0743 27.7646V30.6957C17.3661 30.3314 16.5644 30.1241 15.7148 30.1241H14.209C11.3569 30.1241 9.03697 32.444 9.03697 35.2957V38.2269C8.32909 37.8621 7.52745 37.6548 6.67784 37.6548H5.17162C2.31994 37.6548 0 39.9748 0 42.8265V46.5918C0 47.3686 0.629515 47.9981 1.40625 47.9981H46.5918C47.3686 47.9981 47.9981 47.3686 47.9981 46.5918V20.2338C47.9981 17.3822 45.6781 15.0619 42.8265 15.0619ZM36.7016 2.81249H43.1971L41.8322 4.17736C41.5682 4.44103 41.4202 4.79882 41.4202 5.17162C41.4202 5.54479 41.5682 5.90221 41.8322 6.16625L43.1971 7.53111H36.7016V2.81249ZM2.81249 42.8265C2.81249 41.5257 3.87084 40.4673 5.17162 40.4673H6.67784C7.97862 40.4673 9.03697 41.5257 9.03697 42.8265V45.1859H2.81249V42.8265ZM11.8495 42.8265V35.2957C11.8495 33.9946 12.9078 32.9362 14.2086 32.9362H15.7148C17.0156 32.9362 18.0739 33.9946 18.0739 35.2957V45.1859H11.8495V42.8265ZM20.8864 35.2957V27.7646C20.8864 26.4638 21.9451 25.4055 23.2459 25.4055H24.7521C26.0529 25.4055 27.1113 26.4638 27.1113 27.7646V45.1859H20.8864V35.2957ZM45.1856 45.1859H29.9238V20.2338C29.9238 18.9327 30.9821 17.8744 32.2829 17.8744H42.8265C44.1272 17.8744 45.1856 18.9327 45.1856 20.2338V45.1859Z" fill="#FF5A30"/>
</g>
<defs>
<clipPath id="clip0_55284_1279">
<rect width="48" height="48" fill="white"/>
</clipPath>
</defs>
</svg>

<svg width="48" height="48" fill="none" xmlns="http://www.w3.org/2000/svg"><g clip-path="url(#clip0_55284_1279)"><path d="M42.827 15.062h-6.125v-4.718H46.594a1.406 1.406 0 00.95-2.443l-2.729-2.73 2.772-2.77A1.406 1.406 0 0046.592 0H35.295c-.776 0-1.406.63-1.406 1.406v13.656h-1.606a5.178 5.178 0 00-5.172 5.172v2.93a5.14 5.14 0 00-2.359-.571h-1.506a5.177 5.177 0 00-5.172 5.172v2.93a5.143 5.143 0 00-2.36-.57H14.21a5.177 5.177 0 00-5.172 5.17v2.932a5.135 5.135 0 00-2.36-.572H5.173A5.177 5.177 0 000 42.827v3.765c0 .777.63 1.406 1.406 1.406h45.186c.777 0 1.406-.63 1.406-1.406V20.234a5.178 5.178 0 00-5.171-5.172zm-6.125-12.25h6.495l-1.365 1.365a1.405 1.405 0 000 1.99l1.365 1.364h-6.495V2.812zM2.812 42.826c0-1.3 1.059-2.359 2.36-2.359h1.506c1.3 0 2.359 1.059 2.359 2.36v2.359H2.812v-2.36zm9.038 0v-7.53a2.362 2.362 0 012.359-2.36h1.506c1.3 0 2.359 1.059 2.359 2.36v9.89h-6.225v-2.36zm9.036-7.53v-7.531c0-1.301 1.06-2.36 2.36-2.36h1.506c1.3 0 2.36 1.059 2.36 2.36v17.42h-6.226v-9.89zm24.3 9.89H29.924V20.234a2.362 2.362 0 012.359-2.36h10.544c1.3 0 2.359 1.059 2.359 2.36v24.952z" fill="#FF5A30"/></g><defs><clipPath id="clip0_55284_1279"><path fill="#fff" d="M0 0h48v48H0z"/></clipPath></defs></svg>
